X:1     %Music
B:Patterson, D W, 1979, The Shaker Spiritual, Princeton University Press, New Jersey
Z:Daniel W Patterson
F:http://www.folkinfo.org/songs
T:Shaker March No 20
M:2/2     %Meter
L:1/8     %
K:G
Bc |d4 B3 A |G2 E2 E2 Bc |d2 B2 d2 e2 |
^c2 A2 A2 B=c |d2 Bc d2 BA |G2 E2 A4 |G4 E3 F |
E2 D2 D4 ::E4 E3 F |E2 D2 G4 |A4 A3 B |
^c2 A2 G2 E2 |D4 E3 F |G2 E2 A4 |G3 A G3 E |
E2 D2 D4 :|